packages/calcite-ui-icons/icons/string-set-24.svg

<?xml version="1.0" encoding="UTF-8"?><svg id="icons" xmlns="http://www.w3.org/2000/svg" viewBox="0 0 24 24"><defs><style>.cls-1{fill:none;}</style></defs><path d="M11.75,13h-3.75V0h1v5h2.75c.68945,0,1.25.56055,1.25,1.25v5.5c0,.68945-.56055,1.25-1.25,1.25ZM9,12h2.75c.1377,0,.25-.1123.25-.25v-5.5c0-.1377-.1123-.25-.25-.25h-2.75v6ZM6,13h-3.75c-.68945,0-1.25-.56055-1.25-1.25v-2.5c0-.68945.56055-1.25,1.25-1.25h2.75v-2H1v-1h4c.55176,0,1,.44824,1,1v7ZM2.25,9c-.1377,0-.25.1123-.25.25v2.5c0,.1377.1123.25.25.25h2.75v-3h-2.75ZM20,12h-3.75c-.1377,0-.25-.1123-.25-.25v-5.5c0-.1377.1123-.25.25-.25h3.75v-1h-3.75c-.68945,0-1.25.56055-1.25,1.25v5.5c0,.68945.56055,1.25,1.25,1.25h3.75v-1ZM17,23h-2v-7h2v-1h-3v9h3v-1ZM21,15v1h2v7h-2v1h3v-9h-3Z"/><rect class="cls-1" width="24" height="24"/></svg>

<svg xmlns="http://www.w3.org/2000/svg" viewBox="0 0 24 24"><path d="M11.75 13H8V0h1v5h2.75c.69 0 1.25.56 1.25 1.25v5.5c0 .69-.56 1.25-1.25 1.25zM9 12h2.75a.25.25 0 0 0 .25-.25v-5.5a.25.25 0 0 0-.25-.25H9v6zm-3 1H2.25C1.56 13 1 12.44 1 11.75v-2.5C1 8.56 1.56 8 2.25 8H5V6H1V5h4a1 1 0 0 1 1 1v7zM2.25 9a.25.25 0 0 0-.25.25v2.5c0 .138.112.25.25.25H5V9H2.25zM20 12h-3.75a.25.25 0 0 1-.25-.25v-5.5a.25.25 0 0 1 .25-.25H20V5h-3.75C15.56 5 15 5.56 15 6.25v5.5c0 .69.56 1.25 1.25 1.25H20v-1zm-3 11h-2v-7h2v-1h-3v9h3v-1zm4-8v1h2v7h-2v1h3v-9h-3z"/><path fill="none" d="M0 0h24v24H0z"/></svg>
